src/images/svg/symbols/markets-stocks-and-indices/american-stocks/stocks-fox-corp-class-b.svg

<svg width="32" height="32" viewBox="0 0 32 32" fill="none" xmlns="http://www.w3.org/2000/svg">
<path d="M0 16C0 7.16344 7.16344 0 16 0C24.8366 0 32 7.16344 32 16C32 24.8366 24.8366 32 16 32C7.16344 32 0 24.8366 0 16Z" fill="#3681DA"/>
<path d="M6.91541 13.6558V14.999H9.75446V17.8076H6.91541V21.135H4V10.832H10.1971L10.3956 13.6558H6.91541Z" fill="white"/>
<path fill-rule="evenodd" clip-rule="evenodd" d="M18.7187 12.4158C19.6859 13.403 20.1698 14.5948 20.1698 15.9908C20.1698 17.397 19.6859 18.5936 18.7187 19.581C17.7514 20.5682 16.5846 21.0618 15.2185 21.0618C13.8423 21.0618 12.6704 20.5682 11.7033 19.581C10.7359 18.5936 10.2523 17.397 10.2523 15.9908C10.2523 14.5947 10.7359 13.403 11.7033 12.4158C12.6704 11.4285 13.8423 10.9349 15.2185 10.9349C16.5846 10.9349 17.7514 11.4285 18.7187 12.4158ZM14.3808 18.0551C14.3808 18.2846 14.4654 18.484 14.6351 18.6534C14.8045 18.8231 15.0091 18.9078 15.2484 18.9078C15.4877 18.9078 15.6897 18.8231 15.8542 18.6534C16.0188 18.484 16.1011 18.2846 16.1011 18.0551V13.8817C16.1011 13.6424 16.0188 13.4381 15.8542 13.2684C15.6897 13.099 15.4878 13.0141 15.2484 13.0141C15.0091 13.0141 14.8046 13.099 14.6351 13.2684C14.4654 13.4381 14.3808 13.6424 14.3808 13.8817V18.0551Z" fill="white"/>
<path d="M23.253 18.5555L24.7182 21.1656H28L24.8862 15.7927L27.71 10.832H24.5199L23.2988 13.0605L22.093 10.832H18.796L21.6809 15.8233L18.6281 21.1657H21.8335L23.253 18.5555Z" fill="white"/>
</svg>

<svg width="32" height="32" fill="none" xmlns="http://www.w3.org/2000/svg"><path d="M0 16C0 7.163 7.163 0 16 0s16 7.163 16 16-7.163 16-16 16S0 24.837 0 16Z" fill="#3681DA"/><path d="M6.915 13.656v1.343h2.84v2.809h-2.84v3.327H4V10.832h6.197l.199 2.824h-3.48Z" fill="#fff"/><path fill-rule="evenodd" clip-rule="evenodd" d="M18.719 12.416c.967.987 1.45 2.179 1.45 3.575 0 1.406-.483 2.603-1.45 3.59-.968.987-2.134 1.48-3.5 1.48-1.377 0-2.549-.493-3.516-1.48-.967-.987-1.45-2.184-1.45-3.59 0-1.396.483-2.588 1.45-3.575.967-.988 2.14-1.481 3.516-1.481 1.366 0 2.532.493 3.5 1.48Zm-4.338 5.64c0 .229.084.428.254.597.17.17.374.255.613.255a.81.81 0 0 0 .606-.255.83.83 0 0 0 .247-.598v-4.173a.849.849 0 0 0-.247-.614.812.812 0 0 0-.606-.254.836.836 0 0 0-.613.254.835.835 0 0 0-.254.614v4.173Z" fill="#fff"/><path d="m23.253 18.555 1.465 2.61H28l-3.114-5.372 2.824-4.961h-3.19l-1.221 2.228-1.206-2.228h-3.297l2.885 4.991-3.053 5.343h3.206l1.419-2.61Z" fill="#fff"/></svg>
